static/card-icons/list.svg

<svg viewBox="0 0 330 330" xmlns="http://www.w3.org/2000/svg"><path d="m75 60h240c8.284 0 15-6.716 15-15s-6.716-15-15-15h-240c-8.284 0-15 6.716-15 15s6.716 15 15 15z"/><path d="m315 150h-240c-8.284 0-15 6.716-15 15s6.716 15 15 15h240c8.284 0 15-6.716 15-15s-6.716-15-15-15z"/><path d="m315 270h-240c-8.284 0-15 6.716-15 15s6.716 15 15 15h240c8.284 0 15-6.716 15-15s-6.716-15-15-15z"/><path d="m15 30c-3.95 0-7.81 1.6-10.61 4.39-2.79 2.799-4.39 6.66-4.39 10.61s1.6 7.81 4.39 10.609c2.8 2.79 6.66 4.391 10.61 4.391s7.81-1.601 10.61-4.391c2.79-2.799 4.39-6.659 4.39-10.609s-1.6-7.811-4.39-10.61c-2.8-2.79-6.66-4.39-10.61-4.39z"/><path d="m15 150c-3.95 0-7.81 1.6-10.61 4.39-2.79 2.79-4.39 6.66-4.39 10.61s1.6 7.81 4.39 10.609c2.8 2.79 6.66 4.391 10.61 4.391s7.82-1.601 10.61-4.391c2.79-2.799 4.39-6.659 4.39-10.609s-1.6-7.82-4.39-10.61-6.66-4.39-10.61-4.39z"/><path d="m15 270c-3.95 0-7.81 1.6-10.61 4.39-2.79 2.8-4.39 6.66-4.39 10.61s1.6 7.81 4.39 10.609c2.8 2.79 6.66 4.391 10.61 4.391s7.81-1.601 10.61-4.391c2.79-2.799 4.39-6.659 4.39-10.609s-1.6-7.81-4.39-10.61c-2.8-2.79-6.66-4.39-10.61-4.39z"/></svg>

<?xml version="1.0" encoding="iso-8859-1"?>
<!-- Generator: Adobe Illustrator 18.0.0, SVG Export Plug-In . SVG Version: 6.00 Build 0)  -->
<!DOCTYPE svg PUBLIC "-//W3C//DTD SVG 1.1//EN" "http://www.w3.org/Graphics/SVG/1.1/DTD/svg11.dtd">
<svg version="1.1" id="Capa_1" xmlns="http://www.w3.org/2000/svg" xmlns:xlink="http://www.w3.org/1999/xlink" x="0px" y="0px"
	 viewBox="0 0 330 330" style="enableBackground:new 0 0 330 330;" xml:space="preserve">
<g>
	<path d="M75,60h240c8.284,0,15-6.716,15-15s-6.716-15-15-15H75c-8.284,0-15,6.716-15,15S66.716,60,75,60z"/>
	<path d="M315,150H75c-8.284,0-15,6.716-15,15s6.716,15,15,15h240c8.284,0,15-6.716,15-15S323.284,150,315,150z"/>
	<path d="M315,270H75c-8.284,0-15,6.716-15,15s6.716,15,15,15h240c8.284,0,15-6.716,15-15S323.284,270,315,270z"/>
	<path d="M15,30c-3.95,0-7.81,1.6-10.61,4.39C1.6,37.189,0,41.05,0,45s1.6,7.81,4.39,10.609C7.19,58.399,11.05,60,15,60
		c3.95,0,7.81-1.601,10.61-4.391C28.4,52.81,30,48.95,30,45s-1.6-7.811-4.39-10.61C22.81,31.6,18.95,30,15,30z"/>
	<path d="M15,150c-3.95,0-7.81,1.6-10.61,4.39C1.6,157.18,0,161.05,0,165s1.6,7.81,4.39,10.609C7.19,178.399,11.05,180,15,180
		c3.95,0,7.82-1.601,10.61-4.391C28.4,172.81,30,168.95,30,165s-1.6-7.82-4.39-10.61C22.82,151.6,18.95,150,15,150z"/>
	<path d="M15,270c-3.95,0-7.81,1.6-10.61,4.39C1.6,277.19,0,281.05,0,285s1.6,7.81,4.39,10.609C7.19,298.399,11.05,300,15,300
		c3.95,0,7.81-1.601,10.61-4.391C28.4,292.81,30,288.95,30,285s-1.6-7.81-4.39-10.61C22.81,271.6,18.95,270,15,270z"/>
</g>
<g>
</g>
<g>
</g>
<g>
</g>
<g>
</g>
<g>
</g>
<g>
</g>
<g>
</g>
<g>
</g>
<g>
</g>
<g>
</g>
<g>
</g>
<g>
</g>
<g>
</g>
<g>
</g>
<g>
</g>
</svg>
